X:1
T:My words, as grieved to God I pray
T:My words, as grieved to God I pray (William Shield)
C:William Shield
Z:p57, Improved Psalmody,
Z:ed. W. D. Tattersall,
Z:London: (1794).
%%score [ 1 2 3 ]
L:1/8
M:3/2
K:F
V:1 treble nm="Soprano" snm="S."
V:2 treble nm="Alto" snm="A."
V:3 bass nm="Bass" snm="B."
V:1
 (c3 B) | A8 G4 | F8 c4 | d4 e8 | f8 c4 | f8 e4 | (A4 =B4) c4 | (d4 c4) =B4 | c8 (A3 B) | c8 f4 | %10
w: Col- *|lec- ted|clouds of|wrea- thing|smoke Forth|from his|an- * gry|nos- * trils|broke, And _|orbs of|
w: My _|words, as|griev’d to|God I|pray, Wing|to his|heav’n- * ly|fane _ their|way, Through _|ad- verse|
w: With _|strong con-|vul- sions|groan’d the|ground; The|hills, with|wa- * ving|fo- * rests|crown’d, Loos’d _|from their|
 (e4 d4) c4 | (c4 B4) A4 | (A4 G4) d4 | d8 (c2 B2) | (A2 G2 F2 G2) (A2 B2) | (c3 d A4) G4 | F8 |] %17
w: fire, _ with|dread- * ful|glare, _ Rush’d|on- ward _|through _ _ _ the _|glow- * * ing|air.|
w: clouds _ their|pas- * sage|clear, _ Nor|un- ac- *|cep- * * * ted _|reach _ _ his|ear.|
w: base, _ their|sum- * mits|nod, _ And|own the _|pre- * * * sence _|of _ _ their|God.|
V:2
 (A3 G) | F8 E4 | F8 F4 | (F4 B4) G4 | A8 c4 | (c4 d4) e4 | d8 G4 | (A4 G4) F4 | E8 F4 | F8 F4 | %10
w: Col- *|lec- ted|clouds of|wrea- * thing|smoke Forth|from _ his|an- gry|nos- * trils|broke, And|orbs of|
w: My _|words, as|griev’d to|God _ I|pray, Wing|to _ his|heav’n- ly|fane _ their|way, Through|ad- verse|
w: With _|strong con-|vul- sions|groan’d _ the|ground; The|hills, _ with|wa- ving|fo- * rests|crown’d, Loos’d|from their|
 F8 ^F4 | (G4 E4) F4 | (F4 E4) B4 | B8 (A2 G2) | (F2 E2 D2 E2) (F2 G2) | (A4 F4) E4 | F8 |] %17
w: fire, with|dread- * ful|glare, _ Rush’d|on- ward _|through _ _ _ the _|glow- * ing|air.|
w: clouds their|pas- * sage|clear, _ Nor|un- ac- *|cep- * * * ted _|reach _ his|ear.|
w: base, their|sum- * mits|nod, _ And|own the _|pre- * * * sence _|of _ their|God.|
V:3
 F,4 | F,8 C,4 | D,8 A,,4 | (B,,4 G,,4) C,4 | [F,,F,]8 C4 | (A,4 =B,4) C4 | F,8 E,4 | F,4 G,8 | %8
w: Col-|lec- ted|clouds of|wrea- * thing|smoke Forth|from _ his|an- gry|nos- trils|
w: My|words, as|griev’d to|God _ I|pray, Wing|to _ his|heav’n- ly|fane their|
w: With|strong con-|vul- sions|groan’d _ the|ground; The|hills, _ with|wa- ving|fo- rests|
 C,8 (F,3 G,) | A,8 A,4 | B,8 A,4 | %11
w: broke, And _|orbs of|fire, with|
w: way, Through _|ad- verse|clouds their|
w: crown’d, Loos’d _|from their|base, their|
"^Notes:This setting is attributed to 'Mr. Shield' in the source.Only the first verse of the five given here is underlaid in the source: the other verses are printed after the musicand have been underlaid editorially.The E in the first soprano part on beat 1 of bar 10 and the A in the first soprano part and F in the second soprano parton beat 1 of bar 12 are shown in the source as small crotchet grace notes, followed by a semibreve in each case;these appoggiature have here been expanded editorially." G,8 F,4 | %12
w: dread- ful|
w: pas- sage|
w: sum- mits|
 C,8 B,,4 | B,,8 C,4 | D,8 (C,2 B,,2) | (A,,3 B,, C,4) C,4 | F,,8 |] %17
w: glare, Rush’d|on- ward|through the _|glow- * * ing|air.|
w: clear, Nor|un- ac-|cep- ted _|reach _ _ his|ear.|
w: nod, And|own the|pre- sence _|of _ _ their|God.|

